assets/images/distributions/aws-linux.svg

<svg xmlns="http://www.w3.org/2000/svg" preserveAspectRatio="xMidYMid" width="105" height="42" viewBox="0 0 105 42"><defs><style>.cls-3{fill:#000}.cls-4{fill:#f9af32}</style></defs><g id="amazon-linuxsvg"><path d="M104.079 41.283c0 .074-.073.13-.256.186l-1.539.463c-.128.037-.128.037-.183.037-.074 0-.129-.037-.22-.185l-1.282-1.983c-.458-.723-.55-.89-.697-1.131a24.71 24.71 0 0 1-.696 1.131l-1.337 1.983c-.11.167-.147.185-.22.185-.055 0-.055 0-.201-.056l-1.503-.537c-.183-.074-.238-.111-.238-.204 0-.074 0-.093.11-.241l2.766-3.892-2.436-3.577c-.11-.148-.11-.167-.11-.223 0-.092.073-.148.238-.203l1.502-.575c.129-.056.147-.056.202-.056.073 0 .11.038.201.204l1.026 1.687.183.334c.055.092.11.203.184.296.128.223.146.26.274.501.403-.649.44-.668.752-1.131l1.154-1.705c.091-.148.164-.186.238-.186.036 0 .091.019.183.056l1.484.556c.183.074.238.13.238.222 0 .056 0 .075-.11.223l-2.546 3.577 2.729 4.003c.092.112.11.167.11.241zm-10.916.612c-.147.037-.147.037-.201.037-.202 0-.404-.371-.55-1.019-.824.797-1.484 1.075-2.528 1.075-.916 0-1.631-.278-2.07-.797-.513-.575-.623-1.112-.623-2.818v-5.43c0-.26.018-.278.275-.334l1.703-.37c.037-.019.11-.019.147-.019.147 0 .202.074.202.297v5.745c0 .834.036 1.112.164 1.353.165.315.532.501.953.501.513 0 .971-.204 1.52-.668v-6.505c0-.26.019-.278.275-.334l1.704-.37.183-.019c.11 0 .165.093.165.297v6.82c0 .908.073 1.335.348 1.891a.346.346 0 0 1 .055.167c0 .074-.055.111-.183.148l-1.539.352zm-8.48-.222H82.98c-.275 0-.312-.038-.312-.316v-5.708c0-1.094-.311-1.557-1.044-1.557-.531 0-.953.204-1.594.76v6.505c0 .278-.036.316-.311.316h-1.704c-.275 0-.311-.038-.311-.316V35.13c0-.797-.128-1.464-.385-2.02a.414.414 0 0 1-.055-.186c0-.055.055-.129.147-.166l1.63-.612a.779.779 0 0 1 .183-.037c.22 0 .458.463.66 1.279.916-.853 1.703-1.186 2.748-1.186 1.63 0 2.363.908 2.363 2.928v6.227c0 .278-.037.316-.312.316zm-10.752-10.38c-.824 0-1.484-.667-1.484-1.519 0-.816.678-1.483 1.502-1.483.806 0 1.466.686 1.466 1.501 0 .834-.66 1.501-1.484 1.501zm1.227 1.539v8.525c0 .278-.036.316-.311.316h-1.704c-.274 0-.311-.038-.311-.316V34.24H71.44c-.275 0-.312-.037-.312-.315v-1.093c0-.278.037-.315.312-.315h3.407c.275 0 .311.037.311.315zm-3.936 6.969l-.33 1.538c-.055.278-.128.334-.421.334h-6.064c-.348 0-.385-.038-.385-.39V29.347c0-.352.037-.389.385-.389h1.74c.33 0 .385.056.385.389v10.027h4.36c.256 0 .366.056.366.204 0 .037 0 .037-.036.223zm-13.664 1.872h-1.703c-.275 0-.312-.038-.312-.316v-5.708c0-1.094-.311-1.557-1.044-1.557-.531 0-.952.204-1.594.76v6.505c0 .278-.036.316-.311.316H50.89c-.274 0-.311-.038-.311-.316V35.13c0-.797-.128-1.464-.385-2.02a.427.427 0 0 1-.055-.186c0-.055.055-.129.147-.166l1.63-.612a.779.779 0 0 1 .183-.037c.22 0 .458.463.66 1.279.916-.853 1.704-1.186 2.748-1.186 1.63 0 2.363.908 2.363 2.928v6.227c0 .278-.037.316-.312.316zm-12.711.315c-2.51 0-3.994-1.817-3.994-4.893 0-1.52.348-2.669 1.063-3.54.788-.946 1.685-1.353 3.004-1.353 2.4 0 3.902 1.872 3.902 4.874 0 3.021-1.52 4.912-3.975 4.912zm-.037-7.914c-1.044 0-1.484.889-1.484 3.021 0 2.15.44 3.021 1.503 3.021 1.08 0 1.52-.89 1.52-3.003 0-2.187-.44-3.039-1.539-3.039zm-5.201 7.358c-.073.185-.146.241-.348.241h-5.862c-.275 0-.311-.038-.311-.316v-1.278l4.268-5.709h-3.572c-.275 0-.312-.037-.312-.315v-1.223c0-.278.037-.315.312-.315h5.77c.257 0 .312.055.312.315v1.353l-4.14 5.541h4.195c.201 0 .293.056.293.186a.566.566 0 0 1-.055.204l-.55 1.316zm-9.157.481a.473.473 0 0 1-.22.056c-.165 0-.348-.352-.55-1.093-.733.759-1.392 1.056-2.345 1.056-1.685 0-2.748-1.093-2.748-2.799 0-1.649.88-2.613 2.73-2.984.476-.092 1.044-.148 2.052-.166v-.575c0-1.056-.293-1.39-1.209-1.39-.55 0-1.246.167-2.052.482a.473.473 0 0 1-.202.055c-.091 0-.146-.055-.183-.185l-.384-1.112a.77.77 0 0 1-.037-.204c0-.389 1.667-.852 3.132-.852 1.448 0 2.437.481 2.858 1.427.183.389.257.834.257 1.538v3.781c0 .816.11 1.353.421 2.002a.48.48 0 0 1 .055.204c0 .074-.055.148-.147.185l-1.428.574zm-1.081-4.392c-1.832 0-2.565.408-2.565 1.483 0 .722.513 1.278 1.172 1.278.495 0 .953-.24 1.393-.722v-2.039zm-6.702 4.152h-1.685c-.275 0-.312-.038-.312-.316v-5.875c0-1.038-.22-1.427-.824-1.427-.495 0-.916.222-1.576.834v6.468c0 .278-.036.316-.311.316h-1.667c-.275 0-.312-.038-.312-.316v-5.69c0-1.223-.183-1.575-.842-1.575-.477 0-.953.241-1.576.797v6.468c0 .278-.036.316-.311.316h-1.667c-.275 0-.312-.038-.312-.316V35.13c0-.945-.073-1.334-.329-2.002a.48.48 0 0 1-.055-.204c0-.092.073-.185.201-.222l1.484-.5c.092-.019.147-.037.183-.037.202 0 .422.518.586 1.334 1.008-.945 1.741-1.297 2.73-1.297.953 0 1.594.407 1.997 1.297 1.044-.964 1.795-1.297 2.821-1.297.824 0 1.447.333 1.759.926.256.519.329 1.001.329 2.132v6.097c0 .278-.036.316-.311.316zm-13.005 0H7.668c-.312 0-.348-.019-.422-.316l-.787-3.039H3.363l-.788 3.039c-.073.297-.092.316-.403.316H.358c-.274 0-.366-.056-.366-.204 0-.074.018-.093.055-.241l3.609-11.955c.091-.296.11-.315.403-.315h1.905c.293 0 .311.019.403.315l3.609 11.955c.037.129.055.185.055.241 0 .148-.092.204-.367.204zm-4.359-8.267c-.165-.76-.22-1.093-.458-2.502-.165 1.075-.239 1.501-.477 2.502l-.733 3.17h2.345l-.677-3.17z" id="path-1" class="cls-3" fill-rule="evenodd"/><path d="M51.518 8.099L40.166 3.833 51.531.006l11.465 3.978-11.478 4.115zm-1.299 14.727l-10.058-3.543V7.318l10.058 3.281v12.227zm12.769-3.543L52.93 22.826V10.599l10.058-3.281v11.965z" id="path-2" class="cls-4" fill-rule="evenodd"/></g></svg>

<svg xmlns="http://www.w3.org/2000/svg" xmlns:xlink="http://www.w3.org/1999/xlink" preserveAspectRatio="xMidYMid" width="105" height="42" viewBox="0 0 105 42">
  <defs>
    <style>

      .cls-3 {
        fill: #000000;
      }

      .cls-4 {
        fill: #f9af32;
      }
    </style>
  </defs>
  <g id="amazon-linuxsvg">
    <path d="M104.079,41.283 C104.079,41.357 104.006,41.413 103.823,41.469 C103.823,41.469 102.284,41.932 102.284,41.932 C102.156,41.969 102.156,41.969 102.101,41.969 C102.027,41.969 101.972,41.932 101.881,41.784 C101.881,41.784 100.599,39.801 100.599,39.801 C100.141,39.078 100.049,38.911 99.902,38.670 C99.701,39.022 99.481,39.374 99.206,39.801 C99.206,39.801 97.869,41.784 97.869,41.784 C97.759,41.951 97.722,41.969 97.649,41.969 C97.594,41.969 97.594,41.969 97.448,41.913 C97.448,41.913 95.945,41.376 95.945,41.376 C95.762,41.302 95.707,41.265 95.707,41.172 C95.707,41.098 95.707,41.079 95.817,40.931 C95.817,40.931 98.583,37.039 98.583,37.039 C98.583,37.039 96.147,33.462 96.147,33.462 C96.037,33.314 96.037,33.295 96.037,33.239 C96.037,33.147 96.110,33.091 96.275,33.036 C96.275,33.036 97.777,32.461 97.777,32.461 C97.906,32.405 97.924,32.405 97.979,32.405 C98.052,32.405 98.089,32.443 98.180,32.609 C98.180,32.609 99.206,34.296 99.206,34.296 C99.206,34.296 99.389,34.630 99.389,34.630 C99.444,34.722 99.499,34.833 99.573,34.926 C99.701,35.149 99.719,35.186 99.847,35.427 C100.250,34.778 100.287,34.759 100.599,34.296 C100.599,34.296 101.753,32.591 101.753,32.591 C101.844,32.443 101.917,32.405 101.991,32.405 C102.027,32.405 102.082,32.424 102.174,32.461 C102.174,32.461 103.658,33.017 103.658,33.017 C103.841,33.091 103.896,33.147 103.896,33.239 C103.896,33.295 103.896,33.314 103.786,33.462 C103.786,33.462 101.240,37.039 101.240,37.039 C101.240,37.039 103.969,41.042 103.969,41.042 C104.061,41.154 104.079,41.209 104.079,41.283 ZM93.163,41.895 C93.016,41.932 93.016,41.932 92.962,41.932 C92.760,41.932 92.558,41.561 92.412,40.913 C91.588,41.710 90.928,41.988 89.884,41.988 C88.968,41.988 88.253,41.710 87.814,41.191 C87.301,40.616 87.191,40.079 87.191,38.373 C87.191,38.373 87.191,32.943 87.191,32.943 C87.191,32.683 87.209,32.665 87.466,32.609 C87.466,32.609 89.169,32.239 89.169,32.239 C89.206,32.220 89.279,32.220 89.316,32.220 C89.463,32.220 89.518,32.294 89.518,32.517 C89.518,32.517 89.518,38.262 89.518,38.262 C89.518,39.096 89.554,39.374 89.682,39.615 C89.847,39.930 90.214,40.116 90.635,40.116 C91.148,40.116 91.606,39.912 92.155,39.448 C92.155,39.448 92.155,32.943 92.155,32.943 C92.155,32.683 92.174,32.665 92.430,32.609 C92.430,32.609 94.134,32.239 94.134,32.239 C94.134,32.239 94.317,32.220 94.317,32.220 C94.427,32.220 94.482,32.313 94.482,32.517 C94.482,32.517 94.482,39.337 94.482,39.337 C94.482,40.245 94.555,40.672 94.830,41.228 C94.867,41.283 94.885,41.357 94.885,41.395 C94.885,41.469 94.830,41.506 94.702,41.543 C94.702,41.543 93.163,41.895 93.163,41.895 ZM84.683,41.673 C84.683,41.673 82.980,41.673 82.980,41.673 C82.705,41.673 82.668,41.635 82.668,41.357 C82.668,41.357 82.668,35.649 82.668,35.649 C82.668,34.555 82.357,34.092 81.624,34.092 C81.093,34.092 80.671,34.296 80.030,34.852 C80.030,34.852 80.030,41.357 80.030,41.357 C80.030,41.635 79.994,41.673 79.719,41.673 C79.719,41.673 78.015,41.673 78.015,41.673 C77.740,41.673 77.704,41.635 77.704,41.357 C77.704,41.357 77.704,35.130 77.704,35.130 C77.704,34.333 77.576,33.666 77.319,33.110 C77.282,33.036 77.264,32.980 77.264,32.924 C77.264,32.869 77.319,32.795 77.411,32.758 C77.411,32.758 79.041,32.146 79.041,32.146 C79.096,32.127 79.188,32.109 79.224,32.109 C79.444,32.109 79.682,32.572 79.884,33.388 C80.800,32.535 81.587,32.202 82.632,32.202 C84.262,32.202 84.995,33.110 84.995,35.130 C84.995,35.130 84.995,41.357 84.995,41.357 C84.995,41.635 84.958,41.673 84.683,41.673 ZM73.931,31.293 C73.107,31.293 72.447,30.626 72.447,29.774 C72.447,28.958 73.125,28.291 73.949,28.291 C74.755,28.291 75.415,28.977 75.415,29.792 C75.415,30.626 74.755,31.293 73.931,31.293 ZM75.158,32.832 C75.158,32.832 75.158,41.357 75.158,41.357 C75.158,41.635 75.122,41.673 74.847,41.673 C74.847,41.673 73.143,41.673 73.143,41.673 C72.869,41.673 72.832,41.635 72.832,41.357 C72.832,41.357 72.832,34.240 72.832,34.240 C72.832,34.240 71.440,34.240 71.440,34.240 C71.165,34.240 71.128,34.203 71.128,33.925 C71.128,33.925 71.128,32.832 71.128,32.832 C71.128,32.554 71.165,32.517 71.440,32.517 C71.440,32.517 74.847,32.517 74.847,32.517 C75.122,32.517 75.158,32.554 75.158,32.832 ZM71.222,39.801 C71.222,39.801 70.892,41.339 70.892,41.339 C70.837,41.617 70.764,41.673 70.471,41.673 C70.471,41.673 64.407,41.673 64.407,41.673 C64.059,41.673 64.022,41.635 64.022,41.283 C64.022,41.283 64.022,29.347 64.022,29.347 C64.022,28.995 64.059,28.958 64.407,28.958 C64.407,28.958 66.147,28.958 66.147,28.958 C66.477,28.958 66.532,29.014 66.532,29.347 C66.532,29.347 66.532,39.374 66.532,39.374 C66.532,39.374 70.892,39.374 70.892,39.374 C71.148,39.374 71.258,39.430 71.258,39.578 C71.258,39.615 71.258,39.615 71.222,39.801 ZM57.558,41.673 C57.558,41.673 55.855,41.673 55.855,41.673 C55.580,41.673 55.543,41.635 55.543,41.357 C55.543,41.357 55.543,35.649 55.543,35.649 C55.543,34.555 55.232,34.092 54.499,34.092 C53.968,34.092 53.547,34.296 52.905,34.852 C52.905,34.852 52.905,41.357 52.905,41.357 C52.905,41.635 52.869,41.673 52.594,41.673 C52.594,41.673 50.890,41.673 50.890,41.673 C50.616,41.673 50.579,41.635 50.579,41.357 C50.579,41.357 50.579,35.130 50.579,35.130 C50.579,34.333 50.451,33.666 50.194,33.110 C50.158,33.036 50.139,32.980 50.139,32.924 C50.139,32.869 50.194,32.795 50.286,32.758 C50.286,32.758 51.916,32.146 51.916,32.146 C51.971,32.127 52.063,32.109 52.099,32.109 C52.319,32.109 52.557,32.572 52.759,33.388 C53.675,32.535 54.463,32.202 55.507,32.202 C57.137,32.202 57.870,33.110 57.870,35.130 C57.870,35.130 57.870,41.357 57.870,41.357 C57.870,41.635 57.833,41.673 57.558,41.673 ZM44.847,41.988 C42.337,41.988 40.853,40.171 40.853,37.095 C40.853,35.575 41.201,34.426 41.916,33.555 C42.704,32.609 43.601,32.202 44.920,32.202 C47.320,32.202 48.822,34.074 48.822,37.076 C48.822,40.097 47.302,41.988 44.847,41.988 ZM44.810,34.074 C43.766,34.074 43.326,34.963 43.326,37.095 C43.326,39.245 43.766,40.116 44.829,40.116 C45.909,40.116 46.349,39.226 46.349,37.113 C46.349,34.926 45.909,34.074 44.810,34.074 ZM39.609,41.432 C39.536,41.617 39.463,41.673 39.261,41.673 C39.261,41.673 33.399,41.673 33.399,41.673 C33.124,41.673 33.088,41.635 33.088,41.357 C33.088,41.357 33.088,40.079 33.088,40.079 C33.088,40.079 37.356,34.370 37.356,34.370 C37.356,34.370 33.784,34.370 33.784,34.370 C33.509,34.370 33.472,34.333 33.472,34.055 C33.472,34.055 33.472,32.832 33.472,32.832 C33.472,32.554 33.509,32.517 33.784,32.517 C33.784,32.517 39.554,32.517 39.554,32.517 C39.811,32.517 39.866,32.572 39.866,32.832 C39.866,32.832 39.866,34.185 39.866,34.185 C39.866,34.185 35.726,39.726 35.726,39.726 C35.726,39.726 39.921,39.726 39.921,39.726 C40.122,39.726 40.214,39.782 40.214,39.912 C40.214,39.967 40.196,40.023 40.159,40.116 C40.159,40.116 39.609,41.432 39.609,41.432 ZM30.452,41.913 C30.397,41.951 30.287,41.969 30.232,41.969 C30.067,41.969 29.884,41.617 29.682,40.876 C28.949,41.635 28.290,41.932 27.337,41.932 C25.652,41.932 24.589,40.839 24.589,39.133 C24.589,37.484 25.469,36.520 27.319,36.149 C27.795,36.057 28.363,36.001 29.371,35.983 C29.371,35.983 29.371,35.408 29.371,35.408 C29.371,34.352 29.078,34.018 28.162,34.018 C27.612,34.018 26.916,34.185 26.110,34.500 C26.037,34.537 25.963,34.555 25.908,34.555 C25.817,34.555 25.762,34.500 25.725,34.370 C25.725,34.370 25.341,33.258 25.341,33.258 C25.322,33.202 25.304,33.110 25.304,33.054 C25.304,32.665 26.971,32.202 28.436,32.202 C29.884,32.202 30.873,32.683 31.294,33.629 C31.477,34.018 31.551,34.463 31.551,35.167 C31.551,35.167 31.551,38.948 31.551,38.948 C31.551,39.764 31.661,40.301 31.972,40.950 C32.009,41.024 32.027,41.098 32.027,41.154 C32.027,41.228 31.972,41.302 31.880,41.339 C31.880,41.339 30.452,41.913 30.452,41.913 ZM29.371,37.521 C27.539,37.521 26.806,37.929 26.806,39.004 C26.806,39.726 27.319,40.282 27.978,40.282 C28.473,40.282 28.931,40.042 29.371,39.560 C29.371,39.560 29.371,37.521 29.371,37.521 ZM22.669,41.673 C22.669,41.673 20.984,41.673 20.984,41.673 C20.709,41.673 20.672,41.635 20.672,41.357 C20.672,41.357 20.672,35.482 20.672,35.482 C20.672,34.444 20.452,34.055 19.848,34.055 C19.353,34.055 18.932,34.277 18.272,34.889 C18.272,34.889 18.272,41.357 18.272,41.357 C18.272,41.635 18.236,41.673 17.961,41.673 C17.961,41.673 16.294,41.673 16.294,41.673 C16.019,41.673 15.982,41.635 15.982,41.357 C15.982,41.357 15.982,35.667 15.982,35.667 C15.982,34.444 15.799,34.092 15.140,34.092 C14.663,34.092 14.187,34.333 13.564,34.889 C13.564,34.889 13.564,41.357 13.564,41.357 C13.564,41.635 13.528,41.673 13.253,41.673 C13.253,41.673 11.586,41.673 11.586,41.673 C11.311,41.673 11.274,41.635 11.274,41.357 C11.274,41.357 11.274,35.130 11.274,35.130 C11.274,34.185 11.201,33.796 10.945,33.128 C10.908,33.054 10.890,32.980 10.890,32.924 C10.890,32.832 10.963,32.739 11.091,32.702 C11.091,32.702 12.575,32.202 12.575,32.202 C12.667,32.183 12.722,32.165 12.758,32.165 C12.960,32.165 13.180,32.683 13.344,33.499 C14.352,32.554 15.085,32.202 16.074,32.202 C17.027,32.202 17.668,32.609 18.071,33.499 C19.115,32.535 19.866,32.202 20.892,32.202 C21.716,32.202 22.339,32.535 22.651,33.128 C22.907,33.647 22.980,34.129 22.980,35.260 C22.980,35.260 22.980,41.357 22.980,41.357 C22.980,41.635 22.944,41.673 22.669,41.673 ZM9.664,41.673 C9.664,41.673 7.668,41.673 7.668,41.673 C7.356,41.673 7.320,41.654 7.246,41.357 C7.246,41.357 6.459,38.318 6.459,38.318 C6.459,38.318 3.363,38.318 3.363,38.318 C3.363,38.318 2.575,41.357 2.575,41.357 C2.502,41.654 2.483,41.673 2.172,41.673 C2.172,41.673 0.358,41.673 0.358,41.673 C0.084,41.673 -0.008,41.617 -0.008,41.469 C-0.008,41.395 0.010,41.376 0.047,41.228 C0.047,41.228 3.656,29.273 3.656,29.273 C3.747,28.977 3.766,28.958 4.059,28.958 C4.059,28.958 5.964,28.958 5.964,28.958 C6.257,28.958 6.275,28.977 6.367,29.273 C6.367,29.273 9.976,41.228 9.976,41.228 C10.013,41.357 10.031,41.413 10.031,41.469 C10.031,41.617 9.939,41.673 9.664,41.673 ZM5.305,33.406 C5.140,32.646 5.085,32.313 4.847,30.904 C4.682,31.979 4.608,32.405 4.370,33.406 C4.370,33.406 3.637,36.576 3.637,36.576 C3.637,36.576 5.982,36.576 5.982,36.576 C5.982,36.576 5.305,33.406 5.305,33.406 Z" id="path-1" class="cls-3" fill-rule="evenodd"/>
    <path d="M51.518,8.099 C51.518,8.099 40.166,3.833 40.166,3.833 C40.166,3.833 51.531,0.006 51.531,0.006 C51.531,0.006 62.996,3.984 62.996,3.984 C62.996,3.984 51.518,8.099 51.518,8.099 ZM50.219,22.826 C50.219,22.826 40.161,19.283 40.161,19.283 C40.161,19.283 40.161,7.318 40.161,7.318 C40.161,7.318 50.219,10.599 50.219,10.599 C50.219,10.599 50.219,22.826 50.219,22.826 ZM62.988,19.283 C62.988,19.283 52.930,22.826 52.930,22.826 C52.930,22.826 52.930,10.599 52.930,10.599 C52.930,10.599 62.988,7.318 62.988,7.318 C62.988,7.318 62.988,19.283 62.988,19.283 Z" id="path-2" class="cls-4" fill-rule="evenodd"/>
  </g>
</svg>
